X: 584
T:Turlough og McDonough
M:3/4
L:1/8
C:O'Carolan
S:Craobh Rua
D:Craobh Rua, If Ida been here Ida been ther
Z:Chas Blacker
N:Posted to the woodenflute mailing list September 2002
K:Am
AG|E2A2 BG|A4 AB|c2e2 dc|d4 cd|e2a2 ag|e2a2 ed|
c2B2 AB|G4 AB|c2B2A2|a4 ga|b2g2 ab|g4 ed|c2B3A|
GA B2 cd|e2E2 AB|A4 AG|]E2A2 AB|A4 AG|E2c2 cd|c4 BA|
G2g3 g|ag fe dc|ec' ba gf|e4 ed|c4 dc|B4 AB|cB cd e^f|
g4 ed|c4 dc|B4cd|e2E2 AB|A4|]
<end>
<start>
